svg/country-squared/gy.svg

<?xml version="1.0" encoding="UTF-8" standalone="no"?>
<!-- Created with Sodipodi ("http://www.sodipodi.com/") -->
<svg id="svg548" xmlns:rdf="http://www.w3.org/1999/02/22-rdf-syntax-ns#" xmlns="http://www.w3.org/2000/svg" height="512" width="512" version="1.1" xmlns:cc="http://creativecommons.org/ns#" xmlns:dc="http://purl.org/dc/elements/1.1/">
 <metadata id="metadata3584">
  <rdf:RDF>
   <cc:Work rdf:about="">
    <dc:format>image/svg+xml</dc:format>
    <dc:type rdf:resource="http://purl.org/dc/dcmitype/StillImage"/>
   </cc:Work>
  </rdf:RDF>
 </metadata>
 <g id="flag" fill-rule="evenodd" transform="scale(.99620 1)">
  <rect id="rect672" height="512" width="512" y=".000041723" x="1.9527" stroke-width="1pt" fill="#399408"/>
  <path id="path555" d="m0.13927 0.000016987c-0.67396 0.078245 497.58 257.58 497.58 257.58l-497.72 254.17 0.13927-511.75z" fill="#fff"/>
  <path id="path671" d="m0.22972 21.532c2.7794 0 448.96 232.41 446.42 234.7l-445.15 237.92-1.2703-472.62z" fill="#ffde08"/>
  <path id="path556" d="m1.5007 0.83567c1.4837 0 233.65 256.98 233.65 256.98l-233.65 250.96v-507.95z"/>
  <path id="path670" d="m0.22972 36.162c1.3314-15.985 209.53 222.29 209.53 222.29l-209.53 223.36-0.00028-445.65z" fill="#de2110"/>
 </g>
</svg>

<?xml version="1.0" encoding="utf-8"?>
<!-- Generator: Adobe Illustrator 16.0.0, SVG Export Plug-In . SVG Version: 6.00 Build 0)  -->
<svg version="1.2" baseProfile="tiny"
	 id="svg548" xmlns:cc="http://creativecommons.org/ns#" xmlns:dc="http://purl.org/dc/elements/1.1/" xmlns:rdf="http://www.w3.org/1999/02/22-rdf-syntax-ns#"
	 xmlns="http://www.w3.org/2000/svg" xmlns:xlink="http://www.w3.org/1999/xlink" x="0px" y="0px" width="512px" height="512px"
	 viewBox="0 0 512 512" xml:space="preserve">
<g id="flag" transform="scale(.99620 1)">
	<rect id="rect672" x="1.953" fill="#399408" width="511.999" height="512"/>
	<path id="path555" fill="#FFFFFF" d="M0.139,0c-0.674,0.078,497.579,257.58,497.579,257.58L-0.001,511.75L0.139,0L0.139,0z"/>
	<path id="path671" fill="#FFDE08" d="M0.23,21.532c2.779,0,448.96,232.41,446.42,234.7L1.5,494.152L0.23,21.532L0.23,21.532z"/>
	<path id="path556" d="M1.501,0.835c1.483,0,233.65,256.98,233.65,256.98L1.501,508.775V0.826V0.835z"/>
	<path id="path670" fill="#DE2110" d="M0.23,36.162c1.331-15.985,209.53,222.29,209.53,222.29L0.23,481.812V36.162L0.23,36.162z"/>
</g>
</svg>
